images_sukapura_svg/cmd/32/formproperties.svg

<svg height="32" viewBox="0 0 32 32" width="32" xmlns="http://www.w3.org/2000/svg" xmlns:xlink="http://www.w3.org/1999/xlink"><linearGradient id="a" gradientUnits="userSpaceOnUse" x1="11" x2="11" y1="29" y2="11"><stop offset="0" stop-color="#f7f7f7"/><stop offset=".22222222" stop-color="#fff"/><stop offset=".83333331" stop-color="#fff"/><stop offset="1" stop-color="#f7f7f7"/></linearGradient><linearGradient id="b" gradientUnits="userSpaceOnUse" x1="12" x2="12" y1="26" y2="14"><stop offset="0" stop-color="#cfcfcf"/><stop offset=".0624989" stop-color="#e7e7e7"/><stop offset=".0624989" stop-color="#fff"/><stop offset=".5" stop-color="#f3f3f3"/><stop offset=".93750107" stop-color="#f9f9f9"/><stop offset=".93750107" stop-color="#fcfcfc"/><stop offset="1" stop-color="#fff"/></linearGradient><linearGradient id="c" gradientUnits="userSpaceOnUse" x1="12" x2="12" y1="20" y2="25"><stop offset="0" stop-color="#f8f8f8"/><stop offset="1" stop-color="#fff"/></linearGradient><g transform="matrix(1.33333 0 0 1.33333 .00004 -10.6666)"><path d="m3 11h18v18h-18z" fill="url(#a)"/><path d="m4 3c-.554 0-1 .446-1 1v24c0 .554.446 1 1 1h24c.554 0 1-.446 1-1v-24c0-.554-.446-1-1-1zm0 1h24v24h-24z" fill="#848489" stroke-width="1.33333" transform="matrix(.75000188 0 0 .75000188 -.00003 7.99997)"/><path d="m8.2499906 13.249983h7.5000184v13.500034h-7.5000184z" fill="#626262"/><path d="m9 14h6v12h-6z" fill="url(#b)"/><path d="m9.7499944 14.749987h4.5000116v5.250013h-4.5000116z" fill="#dadada"/><path d="m9.7499944 20h4.5000116v5.250013h-4.5000116z" fill="url(#c)"/><g fill="#a2a2a7" transform="translate(0 8)"><path d="m3.7499794 3.7499794h.7500018v.7500018h-.7500018z"/><path d="m19.500019 3.7499794h.750002v.7500018h-.750002z"/><path d="m3.7499794 19.500019h.7500018v.750002h-.7500018z"/><path d="m19.500019 19.500019h.750002v.750002h-.750002z"/></g></g></svg>

<?xml version="1.0" encoding="UTF-8" standalone="no"?>
<svg
   xmlns:dc="http://purl.org/dc/elements/1.1/"
   xmlns:cc="http://creativecommons.org/ns#"
   xmlns:rdf="http://www.w3.org/1999/02/22-rdf-syntax-ns#"
   xmlns:svg="http://www.w3.org/2000/svg"
   xmlns="http://www.w3.org/2000/svg"
   xmlns:sodipodi="http://sodipodi.sourceforge.net/DTD/sodipodi-0.dtd"
   xmlns:inkscape="http://www.inkscape.org/namespaces/inkscape"
   viewBox="0 0 32 32"
   version="1.1"
   id="svg53"
   sodipodi:docname="formproperties.svg"
   width="32"
   height="32"
   inkscape:version="0.92.3 (unknown)">
  <metadata
     id="metadata59">
    <rdf:RDF>
      <cc:Work
         rdf:about="">
        <dc:format>image/svg+xml</dc:format>
        <dc:type
           rdf:resource="http://purl.org/dc/dcmitype/StillImage" />
        <dc:title></dc:title>
      </cc:Work>
    </rdf:RDF>
  </metadata>
  <defs
     id="defs57" />
  <sodipodi:namedview
     pagecolor="#ffffff"
     bordercolor="#666666"
     borderopacity="1"
     objecttolerance="10"
     gridtolerance="10"
     guidetolerance="10"
     inkscape:pageopacity="0"
     inkscape:pageshadow="2"
     inkscape:window-width="1366"
     inkscape:window-height="699"
     id="namedview55"
     showgrid="true"
     inkscape:zoom="6.9532167"
     inkscape:cx="20.393133"
     inkscape:cy="-2.1515168"
     inkscape:window-x="0"
     inkscape:window-y="0"
     inkscape:window-maximized="1"
     inkscape:current-layer="svg53">
    <inkscape:grid
       type="xygrid"
       id="grid901"
       spacingx="0.5"
       spacingy="0.5"
       empspacing="2" />
  </sodipodi:namedview>
  <linearGradient
     id="a"
     gradientUnits="userSpaceOnUse"
     x1="11"
     x2="11"
     y1="21"
     y2="3"
     gradientTransform="translate(0,8)">
    <stop
       offset="0"
       stop-color="#f7f7f7"
       id="stop2" />
    <stop
       offset=".22222222"
       stop-color="#fff"
       id="stop4" />
    <stop
       offset=".83333331"
       stop-color="#fff"
       id="stop6" />
    <stop
       offset="1"
       stop-color="#f7f7f7"
       id="stop8" />
  </linearGradient>
  <linearGradient
     id="b"
     gradientUnits="userSpaceOnUse"
     x1="12"
     x2="12"
     y1="18"
     y2="6"
     gradientTransform="translate(0,8)">
    <stop
       offset="0"
       stop-color="#cfcfcf"
       id="stop11" />
    <stop
       offset="0.0624989"
       stop-color="#e7e7e7"
       id="stop13" />
    <stop
       offset="0.0624989"
       stop-color="#fff"
       id="stop15" />
    <stop
       offset=".5"
       stop-color="#f3f3f3"
       id="stop17" />
    <stop
       offset="0.93750107"
       stop-color="#f9f9f9"
       id="stop19" />
    <stop
       offset="0.93750107"
       stop-color="#fcfcfc"
       id="stop21" />
    <stop
       offset="1"
       stop-color="#fff"
       id="stop23" />
  </linearGradient>
  <linearGradient
     id="c"
     gradientUnits="userSpaceOnUse"
     x1="12"
     x2="12"
     y1="12"
     y2="17"
     gradientTransform="translate(0,8)">
    <stop
       offset="0"
       stop-color="#f8f8f8"
       id="stop26" />
    <stop
       offset="1"
       stop-color="#fff"
       id="stop28" />
  </linearGradient>
  <g
     id="g914"
     transform="matrix(1.33333,0,0,1.33333,4e-5,-10.6666)">
    <path
       style="fill:url(#a)"
       inkscape:connector-curvature="0"
       id="path31"
       d="M 3,11 H 21 V 29 H 3 Z" />
    <path
       style="fill:#848489;stroke-width:1.33333004"
       d="M 4 3 C 3.446 3 3 3.446 3 4 L 3 28 C 3 28.554 3.446 29 4 29 L 28 29 C 28.554 29 29 28.554 29 28 L 29 4 C 29 3.446 28.554 3 28 3 L 4 3 z M 4 4 L 28 4 L 28 28 L 4 28 L 4 4 z "
       transform="matrix(0.75000188,0,0,0.75000188,-3.0000075e-5,7.99997)"
       id="path33" />
    <path
       style="fill:#626262"
       inkscape:connector-curvature="0"
       id="path35"
       d="M 8.2499906,13.249983 H 15.750009 V 26.750017 H 8.2499906 Z"
       sodipodi:nodetypes="ccccc" />
    <path
       style="fill:url(#b)"
       inkscape:connector-curvature="0"
       id="path37"
       d="m 9,14 h 6 V 26 H 9 Z" />
    <path
       style="fill:#dadada"
       inkscape:connector-curvature="0"
       id="path39"
       d="M 9.7499944,14.749987 H 14.250006 V 20 H 9.7499944 Z"
       sodipodi:nodetypes="ccccc" />
    <path
       style="fill:url(#c)"
       inkscape:connector-curvature="0"
       id="path41"
       d="m 9.7499944,20 h 4.5000116 v 5.250013 H 9.7499944 Z"
       sodipodi:nodetypes="ccccc" />
    <g
       transform="translate(0,8)"
       style="fill:#a2a2a7"
       id="g51">
      <path
         inkscape:connector-curvature="0"
         id="path43"
         d="M 3.7499794,3.7499794 H 4.4999812 V 4.4999812 H 3.7499794 Z"
         sodipodi:nodetypes="ccccc" />
      <path
         inkscape:connector-curvature="0"
         id="path45"
         d="m 19.500019,3.7499794 h 0.750002 v 0.7500018 h -0.750002 z"
         sodipodi:nodetypes="ccccc" />
      <path
         inkscape:connector-curvature="0"
         id="path47"
         d="m 3.7499794,19.500019 h 0.7500018 v 0.750002 H 3.7499794 Z"
         sodipodi:nodetypes="ccccc" />
      <path
         inkscape:connector-curvature="0"
         id="path49"
         d="m 19.500019,19.500019 h 0.750002 v 0.750002 h -0.750002 z"
         sodipodi:nodetypes="ccccc" />
    </g>
  </g>
</svg>
